static/butter.svg

<svg xmlns="http://www.w3.org/2000/svg" width="526" height="387" fill="none"><path fill="#FFDEC1" d="m425.556 114.161.827 23.499 19.378 22.848-17.487 30.954 11.057 15.09L470 191.462l-4-101.248z"/><path fill="#FDF1DD" d="m435 76.335-9.444 37.826L466 90.214l-26.669-73.38-96.988 28.738 22.735 3.844 35.165 31.58z"/><path fill="#DDEBF6" d="m179.673 200.202 4.87 138.524 70.65-33.394-4.568-129.958z"/><path fill="#F3FAFF" d="m54.37 140.832 125.303 59.37 70.952-24.828-130.858-58.869z"/><path fill="#C5DDF0" d="M179.673 200.202 54.37 140.832l4.718 134.195 125.455 63.699z"/><path fill="#3076C0" d="m426.383 137.66-.827-23.499-174.931 61.213 4.568 129.958 174.19-82.331 9.948-16.449-11.057-15.09 17.487-30.954z"/><path fill="#63A0DD" fill-rule="evenodd" d="M425.556 114.161 293.342 51.938l-173.575 64.567 130.858 58.869z" clip-rule="evenodd"/><path fill="#69B5FC" d="m298.601 7.792-5.259 44.146 132.214 62.223L435 76.335l-34.757 4.66-35.165-31.579-22.735-3.844-22.735-3.845z"/><path fill="url(#a)" fill-opacity=".33" d="M184.543 338.726 59.088 275.027 10 289l174.543 91.5L519.5 206.552l-49.5-15.09-30.669 15.09-9.948 16.449-174.19 82.331z"/><path fill="#3369BF" d="M281.122 221.076q-.09-1.52-1.243-1.645-1.122-.175-3.703.786l.329 5.534q1.597-.594 2.566-1.213 1.005-.633 1.545-1.462.573-.879.506-2m1.016 9.494q-.072-1.193-.687-1.63-.617-.436-1.718-.285-1.104.116-3.007.822l.372 6.258q2.65-.984 3.9-2.152 1.247-1.204 1.14-3.013m3.896-6.292q3.277.814 3.475 4.143.085 1.446-.378 2.987-.432 1.492-1.421 2.969-.954 1.464-2.614 2.747-1.662 1.247-3.801 2.042l-7.88 2.931q-2.073.77-3.056-.01-.95-.793-1.122-3.687l-.909-15.302a6.3 6.3 0 0 1 .279-2.322 5.3 5.3 0 0 1 1.2-1.999 5.64 5.64 0 0 1 2.139-1.387l7.778-2.893q3.399-1.227 5.757-.107 2.39 1.07 2.57 4.109a8.6 8.6 0 0 1-.067 1.8 6 6 0 0 1-.364 1.466 7 7 0 0 1-.653 1.278q-.381.586-.933 1.235m27.619-18 .641 10.78q.314 5.281-1.96 8.494-2.243 3.163-7.914 5.273-5.401 2.008-8.094.496-2.66-1.525-2.955-6.481l-.64-10.78q-.114-1.918.868-3.503 1.014-1.633 2.644-2.241 2.004-.744 3.07-.328 1.1.404 1.244 2.828l.701 11.793q.103 1.145.45 1.718.38.561.941.649.558.051 1.407-.265.849-.315 1.38-.735.53-.418.74-.978.244-.571.284-1.067.074-.508.029-1.267l-.703-11.83q-.073-1.228.149-2.163.257-.945.81-1.558a6 6 0 0 1 1.191-.997 9 9 0 0 1 1.52-.713q1.97-.734 3.015-.087t1.182 2.962m19.09 8.245q.123 2.062-.28 3.468-.404 1.371-1.225 2.157-.787.774-2.146 1.279-2.004.745-2.988-.035-.951-.83-1.158-3.711l-.861-13.323-2.887 1.074q-2.139.795-3.27.476-1.095-.331-1.205-2.176-.067-1.121.302-1.925.403-.815 1.237-1.384.833-.605 2.259-1.136l14.537-5.406q1.902-.708 2.794-.3t.997 2.18q.072 1.194-.397 2.071a3.9 3.9 0 0 1-1.237 1.384q-.801.557-2.091 1.037l-3.159 1.174zm25.043-9.314q.123 2.062-.28 3.469-.404 1.37-1.226 2.156-.787.774-2.145 1.279-2.004.745-2.988-.035-.952-.83-1.158-3.711l-.861-13.323-2.887 1.074q-2.14.796-3.27.477-1.095-.333-1.205-2.177-.067-1.122.302-1.924.402-.816 1.237-1.385.831-.605 2.258-1.135l14.538-5.407q1.902-.707 2.794-.3.891.408.997 2.181.071 1.193-.398 2.07a3.86 3.86 0 0 1-1.236 1.384q-.801.557-2.091 1.037l-3.159 1.175zm23.779-18.309q1.8-.67 2.55-.32.785.337.872 1.82.074 1.23-.778 2.101-.819.823-2.653 1.504l-5.502 2.047.228 3.834 7.372-2.705q1.902-.707 2.754-.395.884.262.974 1.782.104 1.737-.841 2.79-.91 1.04-2.88 1.774l-11.005 4.093q-2.004.745-3.022-.023-.986-.816-1.157-3.71l-.908-15.266q-.257-4.341 3.615-5.781l11.004-4.093q1.97-.732 2.96-.435 1.024.285 1.125 1.985.094 1.591-.716 2.559-.779.918-2.681 1.625l-7.404 2.754.251 4.232zm21.732-11.04q-.104-1.736-1.331-1.946t-4.046.84l.371 6.258q2.65-.985 3.866-2.14 1.247-1.204 1.14-3.012m-4.475 14.087q.322 5.426-3.651 6.904-2.004.745-3.022-.022-.986-.817-1.158-3.711l-.907-15.265q-.125-2.099.864-3.575a5.56 5.56 0 0 1 2.752-2.17l7.133-2.653q4.178-1.554 6.884-.416 2.704 1.102 2.897 4.358.147 2.46-.755 4.237-.868 1.728-2.97 3.175 1.636-.498 3.124.576 1.485 1.037 1.625 3.389.141 2.388-.223 3.854-.332 1.417-1.087 2.142-.756.725-2.182 1.256-2.004.744-3.007.23-.971-.563-1.078-2.372-.133-2.243-.612-3.285-.48-1.079-1.148-1.2-.666-.121-1.821.308l-1.866.731z"/><defs><linearGradient id="a" x1="413.537" x2="49.367" y1="179.369" y2="454.861" gradientUnits="userSpaceOnUse"><stop stop-color="#561804"/><stop offset="1" stop-color="#571905" stop-opacity="0"/></linearGradient></defs></svg>

<svg width="526" height="387" viewBox="0 0 526 387" fill="none" xmlns="http://www.w3.org/2000/svg">
<path d="M425.556 114.161L426.383 137.66L445.761 160.508L428.274 191.462L439.331 206.552L470 191.462L466 90.2141L425.556 114.161Z" fill="#FFDEC1"/>
<path d="M435 76.3346L425.556 114.161L466 90.2141L439.331 16.8346L342.343 45.5715L365.078 49.416L400.243 80.9959L435 76.3346Z" fill="#FDF1DD"/>
<path d="M179.673 200.202L184.543 338.726L255.193 305.332L250.625 175.374L179.673 200.202Z" fill="#DDEBF6"/>
<path d="M54.3702 140.832L179.673 200.202L250.625 175.374L119.767 116.505L54.3702 140.832Z" fill="#F3FAFF"/>
<path d="M179.673 200.202L54.3702 140.832L59.0881 275.027L184.543 338.726L179.673 200.202Z" fill="#C5DDF0"/>
<path d="M426.383 137.66L425.556 114.161L250.625 175.374L255.193 305.332L429.383 223.001L439.331 206.552L428.274 191.462L445.761 160.508L426.383 137.66Z" fill="#3076C0"/>
<path fill-rule="evenodd" clip-rule="evenodd" d="M425.556 114.161L293.342 51.9379L119.767 116.505L250.625 175.374L425.556 114.161Z" fill="#63A0DD"/>
<path d="M298.601 7.79169L293.342 51.9379L425.556 114.161L435 76.3346L400.243 80.9959L365.078 49.416L342.343 45.5715L319.608 41.7269L298.601 7.79169Z" fill="#69B5FC"/>
<path d="M184.543 338.726L59.0881 275.027L10.0002 289L184.543 380.5L519.5 206.552L470 191.462L439.331 206.552L429.383 223.001L255.193 305.332L184.543 338.726Z" fill="url(#paint0_linear_325_18)" fill-opacity="0.33"/>
<path d="M281.122 221.076C281.062 220.063 280.648 219.515 279.879 219.431C279.131 219.315 277.897 219.576 276.176 220.217L276.505 225.751C277.569 225.355 278.425 224.951 279.071 224.538C279.741 224.116 280.256 223.629 280.616 223.076C280.998 222.49 281.167 221.824 281.122 221.076ZM282.138 230.57C282.09 229.775 281.861 229.231 281.451 228.94C281.04 228.649 280.467 228.554 279.733 228.655C278.997 228.732 277.995 229.006 276.726 229.477L277.098 235.735C278.865 235.079 280.164 234.361 280.998 233.583C281.829 232.78 282.209 231.776 282.138 230.57ZM286.034 224.278C288.219 224.821 289.377 226.202 289.509 228.421C289.566 229.385 289.44 230.381 289.131 231.408C288.843 232.403 288.369 233.392 287.71 234.377C287.074 235.353 286.203 236.269 285.096 237.124C283.988 237.955 282.721 238.636 281.295 239.166L273.415 242.097C272.033 242.611 271.015 242.607 270.359 242.087C269.726 241.558 269.352 240.33 269.237 238.4L268.328 223.098C268.279 222.278 268.372 221.504 268.607 220.776C268.841 220.048 269.241 219.382 269.807 218.777C270.395 218.164 271.109 217.701 271.946 217.39L279.724 214.497C281.99 213.679 283.909 213.643 285.481 214.39C287.074 215.104 287.931 216.473 288.051 218.499C288.09 219.15 288.068 219.75 287.984 220.299C287.923 220.815 287.801 221.304 287.62 221.765C287.439 222.227 287.222 222.653 286.967 223.043C286.713 223.434 286.402 223.845 286.034 224.278ZM313.653 206.278L314.294 217.058C314.503 220.579 313.85 223.41 312.334 225.552C310.839 227.661 308.201 229.418 304.42 230.825C300.819 232.164 298.121 232.329 296.326 231.321C294.552 230.304 293.568 228.144 293.371 224.84L292.731 214.06C292.655 212.781 292.944 211.614 293.599 210.557C294.275 209.468 295.156 208.721 296.243 208.316C297.579 207.82 298.602 207.71 299.313 207.988C300.047 208.258 300.461 209.2 300.557 210.816L301.258 222.609C301.327 223.372 301.477 223.945 301.708 224.327C301.961 224.701 302.275 224.918 302.649 224.976C303.021 225.01 303.49 224.922 304.056 224.711C304.622 224.501 305.082 224.256 305.436 223.976C305.79 223.697 306.036 223.371 306.176 222.998C306.339 222.617 306.433 222.262 306.46 221.931C306.509 221.593 306.519 221.17 306.489 220.664L305.786 208.834C305.737 208.015 305.787 207.294 305.935 206.671C306.106 206.041 306.376 205.522 306.745 205.113C307.137 204.696 307.534 204.364 307.936 204.116C308.36 203.859 308.867 203.622 309.456 203.403C310.769 202.914 311.774 202.885 312.471 203.316C313.167 203.747 313.562 204.735 313.653 206.278ZM332.743 214.523C332.825 215.897 332.732 217.054 332.463 217.991C332.194 218.905 331.785 219.624 331.238 220.148C330.713 220.664 329.998 221.09 329.092 221.427C327.756 221.924 326.76 221.912 326.104 221.392C325.47 220.839 325.084 219.602 324.946 217.681L324.085 204.358L321.198 205.432C319.772 205.962 318.682 206.121 317.928 205.908C317.198 205.687 316.796 204.962 316.723 203.732C316.678 202.984 316.779 202.343 317.025 201.807C317.294 201.264 317.706 200.802 318.262 200.423C318.817 200.02 319.57 199.641 320.521 199.287L335.058 193.881C336.326 193.409 337.257 193.309 337.852 193.581C338.447 193.853 338.779 194.58 338.849 195.761C338.897 196.557 338.764 197.247 338.452 197.832C338.16 198.384 337.748 198.845 337.215 199.216C336.681 199.587 335.984 199.933 335.124 200.253L331.965 201.427L332.743 214.523ZM357.786 205.209C357.868 206.583 357.775 207.74 357.506 208.678C357.237 209.591 356.828 210.31 356.28 210.834C355.756 211.35 355.04 211.776 354.135 212.113C352.799 212.61 351.803 212.598 351.147 212.078C350.512 211.525 350.126 210.288 349.989 208.367L349.128 195.044L346.241 196.118C344.814 196.649 343.724 196.807 342.971 196.595C342.241 196.373 341.839 195.648 341.766 194.418C341.721 193.67 341.822 193.029 342.068 192.494C342.336 191.95 342.749 191.489 343.305 191.109C343.859 190.706 344.612 190.327 345.563 189.974L360.101 184.567C361.369 184.095 362.3 183.996 362.895 184.267C363.489 184.539 363.822 185.266 363.892 186.448C363.939 187.243 363.807 187.934 363.494 188.518C363.203 189.07 362.791 189.532 362.258 189.902C361.724 190.273 361.027 190.619 360.167 190.939L357.008 192.114L357.786 205.209ZM381.565 186.9C382.765 186.453 383.615 186.347 384.115 186.58C384.638 186.805 384.929 187.411 384.987 188.4C385.036 189.22 384.777 189.92 384.209 190.501C383.663 191.049 382.779 191.551 381.556 192.005L376.054 194.052L376.282 197.886L383.654 195.181C384.922 194.71 385.84 194.578 386.408 194.786C386.997 194.961 387.322 195.555 387.382 196.568C387.451 197.726 387.171 198.656 386.541 199.358C385.934 200.052 384.974 200.643 383.661 201.132L372.656 205.225C371.32 205.721 370.313 205.714 369.634 205.202C368.977 204.658 368.591 203.421 368.477 201.492L367.569 186.226C367.398 183.332 368.602 181.405 371.184 180.445L382.188 176.352C383.502 175.864 384.488 175.719 385.148 175.917C385.831 176.107 386.205 176.769 386.273 177.902C386.336 178.963 386.097 179.816 385.557 180.461C385.038 181.073 384.144 181.615 382.876 182.086L375.472 184.84L375.723 189.072L381.565 186.9ZM403.297 175.86C403.228 174.702 402.784 174.054 401.966 173.914C401.148 173.775 399.799 174.055 397.92 174.754L398.291 181.012C400.058 180.355 401.346 179.642 402.157 178.872C402.988 178.069 403.368 177.065 403.297 175.86ZM398.822 189.947C399.037 193.564 397.82 195.866 395.171 196.851C393.835 197.348 392.828 197.34 392.149 196.829C391.492 196.284 391.106 195.047 390.991 193.118L390.084 177.853C390.001 176.454 390.289 175.262 390.948 174.278C391.628 173.26 392.546 172.537 393.7 172.108L400.833 169.455C403.618 168.419 405.913 168.281 407.717 169.039C409.52 169.774 410.485 171.226 410.614 173.397C410.712 175.037 410.46 176.449 409.859 177.634C409.28 178.786 408.29 179.845 406.889 180.809C407.98 180.477 409.021 180.669 410.013 181.385C411.003 182.077 411.544 183.206 411.638 184.774C411.732 186.366 411.658 187.65 411.415 188.628C411.194 189.573 410.831 190.287 410.328 190.77C409.824 191.253 409.097 191.672 408.146 192.026C406.81 192.522 405.807 192.599 405.139 192.256C404.492 191.881 404.132 191.09 404.061 189.884C403.972 188.389 403.768 187.294 403.449 186.599C403.129 185.88 402.746 185.48 402.301 185.399C401.857 185.318 401.25 185.421 400.48 185.707L398.614 186.438L398.822 189.947Z" fill="#3369BF"/>
<defs>
<linearGradient id="paint0_linear_325_18" x1="413.537" y1="179.369" x2="49.3674" y2="454.861" gradientUnits="userSpaceOnUse">
<stop stop-color="#561804"/>
<stop offset="1" stop-color="#571905" stop-opacity="0"/>
</linearGradient>
</defs>
</svg>
